SVG_Azure_All/Azure AD Verifiable Credential.svg

<?xml version="1.0" encoding="UTF-8" standalone="no"?>
<!-- Generated by Microsoft Visio, SVG Export Azure AD Verifiable Credential.svg Page-1 -->

<svg
   xmlns:dc="http://purl.org/dc/elements/1.1/"
   xmlns:cc="http://creativecommons.org/ns#"
   xmlns:rdf="http://www.w3.org/1999/02/22-rdf-syntax-ns#"
   xmlns:svg="http://www.w3.org/2000/svg"
   xmlns="http://www.w3.org/2000/svg"
   xmlns:sodipodi="http://sodipodi.sourceforge.net/DTD/sodipodi-0.dtd"
   xmlns:inkscape="http://www.inkscape.org/namespaces/inkscape"
   width="0.78781229in"
   height="0.78886509in"
   viewBox="0 0 56.722639 56.798368"
   xml:space="preserve"
   class="st8"
   version="1.1"
   id="svg82"
   sodipodi:docname="Azure AD Verifiable Credential.svg"
   style="font-size:12px;overflow:visible;color-interpolation-filters:sRGB;fill:none;fill-rule:evenodd;stroke-linecap:square;stroke-miterlimit:3"
   inkscape:version="0.92.5 (2060ec1f9f, 2020-04-08)"><metadata
   id="metadata86"><rdf:RDF><cc:Work
       rdf:about=""><dc:format>image/svg+xml</dc:format><dc:type
         rdf:resource="http://purl.org/dc/dcmitype/StillImage" /></cc:Work></rdf:RDF></metadata><sodipodi:namedview
   pagecolor="#ffffff"
   bordercolor="#666666"
   borderopacity="1"
   objecttolerance="10"
   gridtolerance="10"
   guidetolerance="10"
   inkscape:pageopacity="0"
   inkscape:pageshadow="2"
   inkscape:window-width="640"
   inkscape:window-height="480"
   id="namedview84"
   showgrid="false"
   inkscape:zoom="1.6115252"
   inkscape:cx="37.813031"
   inkscape:cy="28.003099"
   inkscape:window-x="0"
   inkscape:window-y="0"
   inkscape:window-maximized="0"
   inkscape:current-layer="svg82" />
	<style
   type="text/css"
   id="style2">
	<![CDATA[
		.st1 {fill:url(#grad0-6);stroke:none;stroke-linecap:butt;stroke-width:19.125}
		.st2 {fill:#773adc;stroke:none;stroke-linecap:butt;stroke-width:19.125}
		.st3 {fill:url(#grad0-12);stroke:none;stroke-linecap:butt;stroke-width:19.125}
		.st4 {fill:#f2f2f2;stroke:none;stroke-linecap:butt;stroke-width:19.125}
		.st5 {fill:url(#grad0-18);stroke:none;stroke-linecap:butt;stroke-width:19.125}
		.st6 {fill:url(#grad0-22);stroke:none;stroke-linecap:butt;stroke-width:19.125}
		.st7 {fill:#b4ec36;stroke:none;stroke-linecap:butt;stroke-width:19.125}
		.st8 {fill:none;fill-rule:evenodd;font-size:12px;overflow:visible;stroke-linecap:square;stroke-miterlimit:3}
	]]>
	</style>

	<defs
   id="Patterns_And_Gradients">
		<linearGradient
   id="grad0-6"
   x1="0"
   y1="46.336267"
   x2="46.802683"
   y2="46.336267"
   gradientTransform="scale(0.84802831,1.1792059)"
   gradientUnits="userSpaceOnUse">
			<stop
   offset="0.5"
   stop-color="#b796f9"
   stop-opacity="1"
   id="stop4" />
			<stop
   offset="0.9"
   stop-color="#a67af4"
   stop-opacity="1"
   id="stop6" />
		</linearGradient>
		<linearGradient
   id="grad0-12"
   x1="-0.0065927454"
   y1="126.90619"
   x2="15.372255"
   y2="126.90619"
   gradientTransform="scale(1.2954899,0.77190874)"
   gradientUnits="userSpaceOnUse">
			<stop
   offset="0"
   stop-color="#a67af4"
   stop-opacity="1"
   id="stop9" />
			<stop
   offset="0.24"
   stop-color="#9065db"
   stop-opacity="1"
   id="stop11" />
			<stop
   offset="0.75"
   stop-color="#653eab"
   stop-opacity="1"
   id="stop13" />
			<stop
   offset="1"
   stop-color="#552f99"
   stop-opacity="1"
   id="stop15" />
		</linearGradient>
		<linearGradient
   id="grad0-18"
   x1="-0.17382986"
   y1="99.306662"
   x2="10.929598"
   y2="99.306662"
   gradientTransform="scale(1.0052572,0.99477032)"
   gradientUnits="userSpaceOnUse">
			<stop
   offset="0"
   stop-color="#a67af4"
   stop-opacity="1"
   id="stop18" />
			<stop
   offset="0.24"
   stop-color="#9065db"
   stop-opacity="1"
   id="stop20" />
			<stop
   offset="0.75"
   stop-color="#653eab"
   stop-opacity="1"
   id="stop22" />
			<stop
   offset="1"
   stop-color="#552f99"
   stop-opacity="1"
   id="stop24" />
		</linearGradient>
		<linearGradient
   id="grad0-22"
   x1="-0.028424132"
   y1="82.369683"
   x2="28.559581"
   y2="82.369683"
   gradientTransform="scale(1.0093019,0.99078378)"
   gradientUnits="userSpaceOnUse">
			<stop
   offset="0"
   stop-color="#76bc2d"
   stop-opacity="1"
   id="stop27" />
			<stop
   offset="0.31"
   stop-color="#7ac22e"
   stop-opacity="1"
   id="stop29" />
			<stop
   offset="0.72"
   stop-color="#84d332"
   stop-opacity="1"
   id="stop31" />
			<stop
   offset="0.785"
   stop-color="#86d633"
   stop-opacity="1"
   id="stop33" />
		</linearGradient>
	</defs>
	<g
   id="g80"
   transform="translate(-19.125,-19.121013)">
		<title
   id="title37">Page-1</title>
		<g
   id="group8670-1"
   transform="translate(19.125,-34.0157)">
			<title
   id="title39">Azure AD Verifiable Credential</title>
			<g
   id="group8671-2">
				<title
   id="title41">Sheet.8671</title>
				<g
   id="shape8672-3"
   transform="translate(0,-1.50336)">
					<title
   id="title43">Sheet.8672</title>
					<path
   d="M 37.77,54.64 H 1.92 C 0.86,54.64 0,55.5 0,56.54 v 51.39 c 0,1.05 0.86,1.9 1.92,1.9 h 35.85 a 1.91919,1.89917 -180 0 0 1.92,-1.9 V 56.54 c 0,-1.04 -0.86,-1.9 -1.92,-1.9 z"
   class="st1"
   id="path45"
   inkscape:connector-curvature="0"
   style="fill:url(#grad0-6);stroke:none;stroke-width:19.125;stroke-linecap:butt" />
				</g>
				<g
   id="shape8673-7"
   transform="translate(8.43368,-11.3223)">
					<title
   id="title48">Sheet.8673</title>
					<path
   d="m 1,109.83 h 20.82 c 0.56,0 1,-0.44 1,-0.99 v -2.04 a 1.00444,0.993959 -180 0 0 -1.00444,-0.99396 L 1,105.81 a 1.00444,0.993959 -180 0 0 -1.00444,0.99396 L 0,108.84 c 0,0.55 0.45,0.99 1,0.99 z m 0,-7.81 h 20.82 c 0.56,0 1,-0.44 1,-0.99 V 98.99 A 1.00444,0.993959 -180 0 0 21.81556,97.996041 L 1,98 a 1.00444,0.993959 -180 0 0 -1.00444,0.993959 L 0,101.03 c 0,0.55 0.45,0.99 1,0.99 z"
   class="st2"
   id="path50"
   inkscape:connector-curvature="0"
   style="fill:#773adc;stroke:none;stroke-width:19.125;stroke-linecap:butt" />
				</g>
				<g
   id="shape8674-9"
   transform="translate(9.89011,-27.7243)">
					<title
   id="title53">Sheet.8674</title>
					<path
   d="m 18.14,109.83 a 1.70934,1.6915 -180 0 0 1.77,-1.68 1.11205,1.10045 -180 0 0 0,-0.2 c -0.7,-5.52 -3.87,-9.99 -9.91,-9.99 -6.04,0 -9.34,3.8 -10,9.94 a 1.78467,1.76605 -180 0 0 1.6,1.93 z"
   class="st3"
   id="path55"
   inkscape:connector-curvature="0"
   style="fill:url(#grad0-12);stroke:none;stroke-width:19.125;stroke-linecap:butt" />
				</g>
				<g
   id="shape8675-13"
   transform="translate(17.0073,-31.4357)">
					<title
   id="title58">Sheet.8675</title>
					<path
   d="M 2.95,102.99 A 5.54054,5.48275 0 0 1 0,102.11 l 2.95,7.72 2.99,-7.67 a 5.67686,5.61764 0 0 1 -2.99,0.83 z"
   class="st4"
   id="path60"
   inkscape:connector-curvature="0"
   style="fill:#f2f2f2;stroke:none;stroke-width:19.125;stroke-linecap:butt" />
				</g>
				<g
   id="shape8676-15"
   transform="translate(14.3428,-38.2816)">
					<title
   id="title63">Sheet.8676</title>
					<path
   d="m 5.58,109.83 a 5.5809,5.52268 -180 0 0 0,-11.04 5.5809,5.52268 -180 1 0 0,11.04 z"
   class="st5"
   id="path65"
   inkscape:connector-curvature="0"
   style="fill:url(#grad0-18);stroke:none;stroke-width:19.125;stroke-linecap:butt" />
				</g>
				<g
   id="shape8677-19"
   transform="translate(27.8974)">
					<title
   id="title68">Sheet.8677</title>
					<path
   d="m 15.83,82.03 1.64,1.05 c 0.42,0.27 0.91,0.41 1.42,0.42 h 1.96 a 2.62409,2.59672 0 0 1 2.39,1.51 l 0.82,1.77 c 0.21,0.45 0.54,0.84 0.96,1.1 l 1.64,1.05 a 2.62409,2.59672 0 0 1 1.18,2.55 l -0.28,1.93 c -0.07,0.49 0,0.99 0.21,1.44 l 0.82,1.77 a 2.62409,2.59672 0 0 1 -0.41,2.78 l -1.28,1.46 a 2.58463,2.55767 -180 0 0 -0.61,1.33 l -0.28,1.93 a 2.62409,2.59672 0 0 1 -1.86,2.12 l -1.88,0.55 c -0.49,0.13 -0.92,0.41 -1.25,0.78 l -1.28,1.47 a 2.6223,2.59494 0 0 1 -2.72,0.79 l -1.88,-0.55 a 2.62588,2.59849 -180 0 0 -1.48,0 l -1.88,0.55 A 2.62409,2.59672 0 0 1 9.06,109.04 L 7.77,107.57 A 2.60615,2.57897 -180 0 0 6.53,106.78 L 4.64,106.24 A 2.62588,2.59849 0 0 1 2.79,104.12 L 2.51,102.19 A 2.58642,2.55944 -180 0 0 1.89,100.86 L 0.61,99.4 A 2.62409,2.59672 0 0 1 0.21,96.62 L 1.02,94.85 C 1.23,94.4 1.3,93.9 1.23,93.41 L 0.95,91.48 a 2.62588,2.59849 0 0 1 1.18,-2.55 l 1.64,-1.05 c 0.42,-0.26 0.76,-0.65 0.97,-1.1 L 5.56,85.01 A 2.62409,2.59672 0 0 1 7.94,83.5 h 1.97 c 0.5,0 0.99,-0.15 1.42,-0.42 l 1.64,-1.05 a 2.62409,2.59672 0 0 1 2.86,0 z"
   class="st6"
   id="path70"
   inkscape:connector-curvature="0"
   style="fill:url(#grad0-22);stroke:none;stroke-width:19.125;stroke-linecap:butt" />
				</g>
				<g
   id="shape8678-23"
   transform="translate(32.1473,-4.05571)">
					<title
   id="title73">Sheet.8678</title>
					<path
   d="m 9.84,90.35 a 9.84348,9.74079 -180 1 0 0,19.48 9.84348,9.74079 -180 0 0 0,-19.48 z"
   class="st7"
   id="path75"
   inkscape:connector-curvature="0"
   style="fill:#b4ec36;stroke:none;stroke-width:19.125;stroke-linecap:butt" />
				</g>
			</g>
		</g>
	</g>
</svg>

<?xml version="1.0" encoding="UTF-8" standalone="no"?>
<!DOCTYPE svg PUBLIC "-//W3C//DTD SVG 1.1//EN" "http://www.w3.org/Graphics/SVG/1.1/DTD/svg11.dtd">
<!-- Generated by Microsoft Visio, SVG Export Azure AD Verifiable Credential.svg Page-1 -->
<svg xmlns="http://www.w3.org/2000/svg" xmlns:xlink="http://www.w3.org/1999/xlink" xmlns:ev="http://www.w3.org/2001/xml-events"
		width="1.31902in" height="1.52547in" viewBox="0 0 94.9697 109.834" xml:space="preserve" color-interpolation-filters="sRGB"
		class="st8">
	<style type="text/css">
	<![CDATA[
		.st1 {fill:url(#grad0-6);stroke:none;stroke-linecap:butt;stroke-width:19.125}
		.st2 {fill:#773adc;stroke:none;stroke-linecap:butt;stroke-width:19.125}
		.st3 {fill:url(#grad0-12);stroke:none;stroke-linecap:butt;stroke-width:19.125}
		.st4 {fill:#f2f2f2;stroke:none;stroke-linecap:butt;stroke-width:19.125}
		.st5 {fill:url(#grad0-18);stroke:none;stroke-linecap:butt;stroke-width:19.125}
		.st6 {fill:url(#grad0-22);stroke:none;stroke-linecap:butt;stroke-width:19.125}
		.st7 {fill:#b4ec36;stroke:none;stroke-linecap:butt;stroke-width:19.125}
		.st8 {fill:none;fill-rule:evenodd;font-size:12px;overflow:visible;stroke-linecap:square;stroke-miterlimit:3}
	]]>
	</style>

	<defs id="Patterns_And_Gradients">
		<linearGradient id="grad0-6" x1="0" y1="0" x2="1" y2="0" gradientTransform="rotate(82.992708226367 0.5 0.5)">
			<stop offset="0.5" stop-color="#b796f9" stop-opacity="1"/>
			<stop offset="0.9" stop-color="#a67af4" stop-opacity="1"/>
		</linearGradient>
		<linearGradient id="grad0-12" x1="0" y1="0" x2="1" y2="0" gradientTransform="rotate(86.979750121025 0.5 0.5)">
			<stop offset="0" stop-color="#a67af4" stop-opacity="1"/>
			<stop offset="0.24" stop-color="#9065db" stop-opacity="1"/>
			<stop offset="0.75" stop-color="#653eab" stop-opacity="1"/>
			<stop offset="1" stop-color="#552f99" stop-opacity="1"/>
		</linearGradient>
		<linearGradient id="grad0-18" x1="0" y1="0" x2="1" y2="0" gradientTransform="rotate(84.993223028636 0.5 0.5)">
			<stop offset="0" stop-color="#a67af4" stop-opacity="1"/>
			<stop offset="0.24" stop-color="#9065db" stop-opacity="1"/>
			<stop offset="0.75" stop-color="#653eab" stop-opacity="1"/>
			<stop offset="1" stop-color="#552f99" stop-opacity="1"/>
		</linearGradient>
		<linearGradient id="grad0-22" x1="0" y1="0" x2="1" y2="0" gradientTransform="rotate(-90 0.5 0.5)">
			<stop offset="0" stop-color="#76bc2d" stop-opacity="1"/>
			<stop offset="0.31" stop-color="#7ac22e" stop-opacity="1"/>
			<stop offset="0.72" stop-color="#84d332" stop-opacity="1"/>
			<stop offset="0.785" stop-color="#86d633" stop-opacity="1"/>
		</linearGradient>
	</defs>
	<g>
		<title>Page-1</title>
		<g id="group8475-1" transform="translate(19.125,-34.0157)">
			<title>Azure AD Verifiable Credential</title>
			<g id="group8476-2">
				<title>Sheet.8476</title>
				<g id="shape8477-3" transform="translate(0,-1.50336)">
					<title>Sheet.8477</title>
					<path d="M37.77 54.64 L1.92 54.64 C0.86 54.64 0 55.5 0 56.54 L0 107.93 C0 108.98 0.86 109.83 1.92 109.83 L37.77
								 109.83 A1.91919 1.89917 -180 0 0 39.69 107.93 L39.69 56.54 C39.69 55.5 38.83 54.64 37.77 54.64 Z"
							class="st1"/>
				</g>
				<g id="shape8478-7" transform="translate(8.43368,-11.3223)">
					<title>Sheet.8478</title>
					<path d="M1 109.83 L21.82 109.83 C22.38 109.83 22.82 109.39 22.82 108.84 L22.82 106.8 a1.00444 0.993959 -180
								 0 0 -1.00444 -0.993959 L1 105.81 a1.00444 0.993959 -180 0 0 -1.00444 0.993959 L0 108.84 C0 109.39
								 0.45 109.83 1 109.83 L1 109.83 ZM1 102.02 L21.82 102.02 C22.38 102.02 22.82 101.58 22.82 101.03
								 L22.82 98.99 a1.00444 0.993959 -180 0 0 -1.00444 -0.993959 L1 98 a1.00444 0.993959 -180 0 0 -1.00444
								 0.993959 L0 101.03 C0 101.58 0.45 102.02 1 102.02 Z" class="st2"/>
				</g>
				<g id="shape8479-9" transform="translate(9.89011,-27.7243)">
					<title>Sheet.8479</title>
					<path d="M18.14 109.83 A1.70934 1.6915 -180 0 0 19.91 108.15 A1.11205 1.10045 -180 0 0 19.91 107.95 C19.21 102.43
								 16.04 97.96 10 97.96 C3.96 97.96 0.66 101.76 0 107.9 A1.78467 1.76605 -180 0 0 1.6 109.83 L18.14
								 109.83 L18.14 109.83 Z" class="st3"/>
				</g>
				<g id="shape8480-13" transform="translate(17.0073,-31.4357)">
					<title>Sheet.8480</title>
					<path d="M2.95 102.99 A5.54054 5.48275 0 0 1 -0 102.11 L2.95 109.83 L5.94 102.16 A5.67686 5.61764 0 0 1 2.95
								 102.99 Z" class="st4"/>
				</g>
				<g id="shape8481-15" transform="translate(14.3428,-38.2816)">
					<title>Sheet.8481</title>
					<path d="M5.58 109.83 A5.5809 5.52268 -180 0 0 5.58 98.79 A5.5809 5.52268 -180 1 0 5.58 109.83 Z" class="st5"/>
				</g>
				<g id="shape8482-19" transform="translate(27.8974,2.84217E-13)">
					<title>Sheet.8482</title>
					<path d="M15.83 82.03 L17.47 83.08 C17.89 83.35 18.38 83.49 18.89 83.5 L20.85 83.5 A2.62409 2.59672 0 0 1 23.24
								 85.01 L24.06 86.78 C24.27 87.23 24.6 87.62 25.02 87.88 L26.66 88.93 A2.62409 2.59672 0 0 1 27.84
								 91.48 L27.56 93.41 C27.49 93.9 27.56 94.4 27.77 94.85 L28.59 96.62 A2.62409 2.59672 0 0 1 28.18
								 99.4 L26.9 100.86 A2.58463 2.55767 -180 0 0 26.29 102.19 L26.01 104.12 A2.62409 2.59672 0 0 1 24.15
								 106.24 L22.27 106.79 C21.78 106.92 21.35 107.2 21.02 107.57 L19.74 109.04 A2.6223 2.59494 0 0 1
								 17.02 109.83 L15.14 109.28 A2.62588 2.59849 -180 0 0 13.66 109.28 L11.78 109.83 A2.62409 2.59672
								 0 0 1 9.06 109.04 L7.77 107.57 A2.60615 2.57897 -180 0 0 6.53 106.78 L4.64 106.24 A2.62588 2.59849
								 0 0 1 2.79 104.12 L2.51 102.19 A2.58642 2.55944 -180 0 0 1.89 100.86 L0.61 99.4 A2.62409 2.59672
								 0 0 1 0.21 96.62 L1.02 94.85 C1.23 94.4 1.3 93.9 1.23 93.41 L0.95 91.48 A2.62588 2.59849 0 0 1 2.13
								 88.93 L3.77 87.88 C4.19 87.62 4.53 87.23 4.74 86.78 L5.56 85.01 A2.62409 2.59672 0 0 1 7.94 83.5
								 L9.91 83.5 C10.41 83.5 10.9 83.35 11.33 83.08 L12.97 82.03 A2.62409 2.59672 0 0 1 15.83 82.03 L15.83
								 82.03 Z" class="st6"/>
				</g>
				<g id="shape8483-23" transform="translate(32.1473,-4.05571)">
					<title>Sheet.8483</title>
					<path d="M9.84 90.35 A9.84348 9.74079 -180 1 0 9.84 109.83 A9.84348 9.74079 -180 0 0 9.84 90.35 Z" class="st7"/>
				</g>
			</g>
		</g>
	</g>
</svg>
